icons/fire.svg

<svg width="24" height="24" viewBox="0 0 24 24" fill="none" xmlns="http://www.w3.org/2000/svg">
<path fill-rule="evenodd" clip-rule="evenodd" d="M10.4666 1.0697C10.8488 0.919078 11.2841 1.01744 11.5644 1.31772C12.2974 2.10305 13.2374 3.85184 13.7032 5.85477C14.1129 7.61678 14.1927 9.73669 13.3053 11.6829C13.5373 11.7743 13.719 11.7569 13.8891 11.6916C14.3479 11.5153 15.0989 10.8631 16.1262 9.01433C16.2865 8.72588 16.5788 8.53507 16.9073 8.50437C17.2359 8.47368 17.5584 8.60705 17.7694 8.86082C18.9629 10.2968 20 12.2756 20 14.5C20 16.733 19.1727 18.8871 17.6808 20.4857C16.1867 22.0865 14.1449 23 12 23C9.85513 23 7.81332 22.0865 6.3192 20.4857C4.82725 18.8871 4 16.733 4 14.5C4 11.9712 5.07158 10.0697 6.60588 8.38025L6.60642 8.37965C6.78146 8.18722 6.9596 7.9983 7.13774 7.8094C8.48575 6.37986 9.83333 4.95079 9.83333 2.00004C9.83333 1.58929 10.0845 1.22032 10.4666 1.0697ZM11.3677 5.01642C10.722 6.94879 9.52643 8.20472 8.57392 9.20535C8.40175 9.38622 8.23752 9.55875 8.08591 9.72542C6.75988 11.1857 6 12.6291 6 14.5C6 16.2454 6.64774 17.9065 7.78131 19.121C8.91269 20.3332 10.4318 21 12 21C13.5682 21 15.0873 20.3332 16.2187 19.121C17.3523 17.9065 18 16.2454 18 14.5C18 13.3772 17.6285 12.2858 17.0599 11.3158C16.2732 12.4645 15.474 13.2252 14.6064 13.5585C13.2807 14.0679 12.1595 13.4776 11.3368 12.7484C10.9702 12.4236 10.8929 11.8809 11.1541 11.4666C12.1242 9.92833 12.1598 8.04764 11.7552 6.3078C11.6486 5.84964 11.5149 5.41578 11.3677 5.01642Z" fill="black"/>
</svg>

<svg
  width="24"
  height="24"
  viewBox="0 0 24 24"
  xmlns="http://www.w3.org/2000/svg"
>
  <path
    fill-rule="evenodd"
    clip-rule="evenodd"
    d="M10.467 1.07a1 1 0 0 1 1.097.248c.733.785 1.673 2.534 2.14 4.537.409 1.762.489 3.882-.399 5.828a.754.754 0 0 0 .584.009c.459-.177 1.21-.829 2.237-2.678a1 1 0 0 1 1.643-.153C18.963 10.297 20 12.276 20 14.5c0 2.233-.827 4.387-2.32 5.986C16.188 22.086 14.146 23 12 23c-2.145 0-4.187-.913-5.68-2.514C4.826 18.887 4 16.733 4 14.5c0-2.529 1.072-4.43 2.606-6.12.175-.193.354-.382.532-.57C8.486 6.38 9.833 4.95 9.833 2a1 1 0 0 1 .634-.93zm.9 3.946c-.645 1.933-1.84 3.189-2.793 4.19-.172.18-.336.353-.488.52C6.76 11.185 6 12.628 6 14.5c0 1.745.648 3.407 1.781 4.621C8.913 20.333 10.431 21 12 21c1.568 0 3.087-.667 4.219-1.879C17.352 17.907 18 16.245 18 14.5c0-1.123-.372-2.214-.94-3.184-.787 1.148-1.586 1.91-2.454 2.242-1.325.51-2.447-.08-3.27-.81a1 1 0 0 1-.182-1.281c.97-1.539 1.006-3.42.601-5.16-.106-.457-.24-.891-.387-1.29z"
  />
</svg>
